www/assets/icons/snowboarding.svg

<svg width="24" height="24" viewBox="0 0 24 24" xmlns="http://www.w3.org/2000/svg" fill='currentColor'><path d="M13.999 3.24951C13.999 2.14951 14.899 1.24951 15.999 1.24951C17.099 1.24951 17.999 2.14951 17.999 3.24951C17.999 4.34951 17.099 5.24951 15.999 5.24951C14.899 5.24951 13.999 4.34951 13.999 3.24951ZM21.399 20.3395C21.169 20.2895 20.939 20.3595 20.759 20.5095C20.069 21.1095 19.119 21.3895 18.159 21.1795L16.999 20.9395L15.999 14.7495L12.679 12.0795L14.479 9.18951C15.629 11.0295 17.679 12.2495 19.999 12.2495V10.2495C18.149 10.2495 16.559 9.12951 15.869 7.52951L15.349 6.31951C15.159 5.88951 14.609 5.24951 13.699 5.24951H7.99898L5.49898 9.24951L7.19898 10.3095L9.09898 7.24951H11.449L8.93898 11.2395C8.65898 11.6895 8.56898 12.2395 8.68898 12.7595L9.49898 16.2495L5.99898 18.5995L5.52898 18.4995C4.56898 18.2995 3.81898 17.6495 3.42898 16.8295C3.32898 16.6195 3.14898 16.4595 2.91898 16.4095C2.48898 16.3195 2.09898 16.6095 2.01898 16.9895C1.97898 17.1295 1.99898 17.2995 2.06898 17.4495C2.64898 18.6895 3.77898 19.6495 5.21898 19.9595L17.849 22.6495C19.289 22.9595 20.709 22.5395 21.749 21.6395C21.879 21.5295 21.959 21.3795 21.989 21.2295C22.059 20.8495 21.829 20.4295 21.399 20.3395ZM8.72898 19.1795L11.749 17.1495L11.309 13.8295L14.149 15.8495L14.899 20.4895L8.72898 19.1795Z"/></svg>

<svg xmlns="http://www.w3.org/2000/svg" width="24" height="24" viewBox="0 0 24 24" fill='currentColor'><path d="M13.999 3.25c0-1.1.9-2 2-2s2 .9 2 2-.9 2-2 2-2-.9-2-2m7.4 17.09a.75.75 0 0 0-.64.17c-.69.6-1.64.88-2.6.67l-1.16-.24-1-6.19-3.32-2.67 1.8-2.89a6.51 6.51 0 0 0 5.52 3.06v-2c-1.85 0-3.44-1.12-4.13-2.72l-.52-1.21c-.19-.43-.74-1.07-1.65-1.07h-5.7l-2.5 4 1.7 1.06 1.9-3.06h2.35l-2.51 3.99c-.28.45-.37 1-.25 1.52l.81 3.49-3.5 2.35-.47-.1c-.96-.2-1.71-.85-2.1-1.67a.74.74 0 0 0-.51-.42c-.43-.09-.82.2-.9.58-.04.14-.02.31.05.46.58 1.24 1.71 2.2 3.15 2.51l12.63 2.69c1.44.31 2.86-.11 3.9-1.01.13-.11.21-.26.24-.41.07-.38-.16-.8-.59-.89m-12.67-1.16 3.02-2.03-.44-3.32 2.84 2.02.75 4.64z"/></svg>
